public/svgs/regular/table-rows.svg

<svg xmlns="http://www.w3.org/2000/svg" viewBox="0 0 512 512"><!-- Font Awesome Pro 6.0.0-alpha2 by @fontawesome - https://fontawesome.com License - https://fontawesome.com/license (Commercial License) --><path d="M0 96V416C0 451.346 28.652 480 64 480H448C483.346 480 512 451.346 512 416V96C512 60.654 483.346 32 448 32H64C28.652 32 0 60.654 0 96ZM464 280V416C464 424.837 456.837 432 448 432H112V280H464ZM448 80C456.837 80 464 87.163 464 96V232H112V80H448Z"/></svg>

<svg xmlns="http://www.w3.org/2000/svg" viewBox="0 0 512 512"><!--! Font Awesome Pro 6.5.1 by @fontawesome - https://fontawesome.com License - https://fontawesome.com/license (Commercial License) Copyright 2023 Fonticons, Inc. --><path d="M448 432l-320 0 0-152 336 0 0 136c0 8.8-7.2 16-16 16zm16-200l-336 0 0-152 320 0c8.8 0 16 7.2 16 16l0 136zM0 416c0 35.3 28.7 64 64 64l384 0c35.3 0 64-28.7 64-64l0-320c0-35.3-28.7-64-64-64L64 32C28.7 32 0 60.7 0 96L0 416z"/></svg>
